fs/tab_desktop_bottom_20_regular.svg

<svg viewBox="0 0 20 20" fill="none" xmlns="http://www.w3.org/2000/svg" height="1em" width="1em">
  <path d="M17.0029 14.5C17.0029 15.8807 15.8836 17 14.5029 17L5.50293 17C4.12222 17 3.00293 15.8807 3.00293 14.5L3.00293 5.5C3.00293 4.11929 4.12222 3 5.50293 3L14.5029 3C15.8836 3 17.0029 4.11929 17.0029 5.5L17.0029 14.5ZM4.00293 14L4.00293 14.5C4.00293 15.3284 4.6745 16 5.50293 16L11.0029 16L11.0029 14.5C11.0029 14.2239 10.7791 14 10.5029 14L4.00293 14ZM12.0029 16L14.5029 16C15.3314 16 16.0029 15.3284 16.0029 14.5L16.0029 5.5C16.0029 4.67157 15.3314 4 14.5029 4L5.50293 4C4.6745 4 4.00293 4.67157 4.00293 5.5L4.00293 13L10.5029 13C11.3314 13 12.0029 13.6716 12.0029 14.5L12.0029 16Z" fill="#212121"/>
</svg>

<svg viewBox="0 0 20 20" fill="none" xmlns="http://www.w3.org/2000/svg" height="1em" width="1em">
  <path d="M17.003 14.5a2.5 2.5 0 0 1-2.5 2.5h-9a2.5 2.5 0 0 1-2.5-2.5v-9a2.5 2.5 0 0 1 2.5-2.5h9a2.5 2.5 0 0 1 2.5 2.5v9Zm-13-.5v.5a1.5 1.5 0 0 0 1.5 1.5h5.5v-1.5a.5.5 0 0 0-.5-.5h-6.5Zm8 2h2.5a1.5 1.5 0 0 0 1.5-1.5v-9a1.5 1.5 0 0 0-1.5-1.5h-9a1.5 1.5 0 0 0-1.5 1.5V13h6.5a1.5 1.5 0 0 1 1.5 1.5V16Z" fill="#212121"/>
</svg>
